lib/brands/icons/postgresql.svg

<svg xmlns="http://www.w3.org/2000/svg" fill="none" aria-hidden="true" viewBox="0 0 48 48"><g id="postgresql-Icon"><g id="Group"><path id="Vector" fill="black" d="M41.3658 27.5647C41.156 26.9292 40.6062 26.4865 39.8952 26.3802C39.56 26.3301 39.176 26.3515 38.7217 26.4452C37.9298 26.6085 37.3423 26.6707 36.9135 26.6828C38.5319 23.9503 39.8479 20.8342 40.6055 17.901C41.8305 13.1582 41.1759 10.9975 40.4109 10.0201C38.3865 7.43336 35.4328 6.04363 31.8693 6.00103C29.9685 5.97783 28.2996 6.35315 27.4292 6.62298C26.6186 6.48006 25.7471 6.4002 24.8326 6.3854C23.1186 6.35808 21.604 6.7317 20.3099 7.49965C19.5933 7.25746 18.4436 6.91593 17.1157 6.69792C13.9925 6.18517 11.4754 6.58474 9.63429 7.8854C7.40483 9.46025 6.37126 12.1964 6.56243 16.0179C6.62306 17.2313 7.30184 20.9228 8.3705 24.4239C8.98469 26.4362 9.63963 28.1073 10.3171 29.3912C11.2779 31.2117 12.3059 32.2838 13.46 32.6687C14.1069 32.8843 15.2822 33.0352 16.5184 32.0058C16.6751 32.1955 16.884 32.384 17.1615 32.5591C17.5138 32.7814 17.9447 32.9629 18.3749 33.0705C19.9256 33.4582 21.378 33.3612 22.6172 32.8179C22.6248 33.0382 22.6307 33.2488 22.6357 33.4306C22.6439 33.7256 22.652 34.0148 22.6628 34.2851C22.7362 36.1138 22.8606 37.5357 23.2293 38.5304C23.2495 38.5852 23.2767 38.6686 23.3055 38.7569C23.4893 39.32 23.7969 40.2626 24.5791 41.0009C25.3894 41.7655 26.3693 42.0001 27.2667 42C27.7168 42 28.1463 41.941 28.5229 41.8602C29.8657 41.5725 31.3906 41.1341 32.4937 39.5634C33.5365 38.0786 34.0435 35.8421 34.1353 32.3182C34.1472 32.2186 34.1582 32.1234 34.1687 32.0327C34.1759 31.9715 34.1831 31.909 34.1905 31.8466L34.4362 31.8681L34.4995 31.8724C35.8671 31.9348 37.5393 31.6447 38.5662 31.1677C39.3778 30.7911 41.9781 29.4183 41.3658 27.5647Z"/><path id="Vector_2" fill="#336791" d="M39.0272 27.9253C34.961 28.7641 34.6815 27.3873 34.6815 27.3873C38.9748 21.0168 40.7695 12.9303 39.2207 10.9512C34.9954 5.55258 27.6811 8.10579 27.5591 8.17208L27.5198 8.17911C26.7164 8.01234 25.8174 7.913 24.8069 7.89651C22.967 7.86635 21.5714 8.37886 20.5123 9.18196C20.5123 9.18196 7.46447 3.80676 8.07131 15.9423C8.20041 18.5241 11.7717 35.4769 16.0313 30.3564C17.5882 28.484 19.0925 26.9008 19.0925 26.9008C19.8397 27.3971 20.7342 27.6503 21.6719 27.5594L21.7447 27.4975C21.7221 27.73 21.7324 27.9574 21.7739 28.2266C20.6765 29.4526 20.999 29.6679 18.8053 30.1194C16.5856 30.5769 17.8896 31.3913 18.741 31.6042C19.7731 31.8623 22.1609 32.2279 23.7743 29.9693L23.71 30.227C24.1399 30.5714 24.4419 32.4671 24.3913 34.1855C24.3407 35.904 24.3069 37.0838 24.6457 38.0053C24.9844 38.9269 25.3221 41.0003 28.2058 40.3824C30.6155 39.866 31.8642 38.5279 32.0379 36.2957C32.1612 34.7088 32.4401 34.9434 32.4578 33.5247L32.6815 32.853C32.9395 30.7019 32.7225 30.0079 34.207 30.3307L34.5678 30.3624C35.6605 30.4121 37.0906 30.1866 37.9299 29.7965C39.7372 28.9577 40.8091 27.5573 39.0271 27.9253H39.0272Z"/><path id="Vector_3" fill="white" d="M21.2768 17.0969C20.9104 17.0459 20.5785 17.0931 20.4106 17.2201C20.3161 17.2917 20.2869 17.3745 20.2791 17.4316C20.258 17.5827 20.3639 17.7497 20.4289 17.8359C20.6129 18.0797 20.8817 18.2474 21.1478 18.2843C21.1864 18.2897 21.2247 18.2923 21.2629 18.2923C21.7067 18.2923 22.11 17.9468 22.1456 17.6917C22.1901 17.3724 21.7264 17.1594 21.2768 17.0969Z"/><path id="Vector_4" fill="white" d="M33.4156 17.107H33.4155C33.3806 16.8566 32.935 16.7853 32.5123 16.844C32.0901 16.9029 31.6807 17.0934 31.7149 17.3443C31.7424 17.5395 32.0946 17.8726 32.5117 17.8725C32.5469 17.8725 32.5824 17.8702 32.6182 17.8651C32.8966 17.8266 33.1009 17.6498 33.1979 17.5479C33.3458 17.3927 33.4312 17.2195 33.4156 17.107Z"/><path id="Vector_5" fill="white" d="M40.3807 27.83C40.2257 27.3611 39.7267 27.2102 38.8975 27.3815C36.4357 27.8895 35.5541 27.5376 35.2646 27.3244C37.1781 24.4093 38.7523 20.8857 39.6014 17.598C40.0038 16.0407 40.226 14.5945 40.2441 13.4157C40.2641 12.1217 40.0439 11.171 39.5893 10.5902C37.7568 8.24867 35.0675 6.99272 31.812 6.9582C29.5739 6.93306 27.683 7.50587 27.3164 7.66689C26.5444 7.47491 25.7029 7.35705 24.7867 7.34201C23.1066 7.31485 21.6543 7.71709 20.4519 8.53693C19.9296 8.3426 18.5798 7.87925 16.9292 7.61338C14.0754 7.15382 11.8077 7.50199 10.1893 8.64849C8.25831 10.0166 7.36685 12.462 7.5396 15.9168C7.59772 17.0792 8.25993 20.6549 9.30514 24.0792C10.6809 28.5863 12.1763 31.1378 13.7498 31.6626C13.934 31.724 14.1464 31.767 14.3805 31.767C14.9545 31.767 15.6582 31.5083 16.3904 30.628C17.6066 29.1649 18.7421 27.9388 19.1607 27.4934C19.7793 27.8254 20.4587 28.0108 21.1538 28.0294C21.155 28.0476 21.1569 28.0658 21.1585 28.0839C21.019 28.2493 20.9047 28.3942 20.8072 28.518C20.3256 29.1292 20.2254 29.2565 18.6753 29.5757C18.2344 29.6666 17.0632 29.908 17.0461 30.7289C17.0274 31.6258 18.4303 32.0025 18.5902 32.0424C19.1473 32.1819 19.6839 32.2507 20.1956 32.2507C21.4404 32.2506 22.5356 31.8415 23.411 31.0501C23.384 34.2476 23.5174 37.3983 23.9013 38.3583C24.2156 39.1441 24.9838 41.0648 27.4103 41.0646C27.7662 41.0646 28.1582 41.0232 28.5893 40.9309C31.1216 40.3879 32.2212 39.2687 32.6466 36.8013C32.8742 35.4826 33.2649 32.3335 33.4486 30.6444C33.8364 30.7654 34.3356 30.8207 34.8753 30.8207C36.0008 30.8207 37.2995 30.5815 38.1141 30.2035C39.029 29.7786 40.6801 28.7358 40.3807 27.83ZM34.3502 16.4159C34.3418 16.9146 34.2732 17.3672 34.2004 17.8398C34.1222 18.348 34.0412 18.8735 34.0208 19.5113C34.0007 20.1321 34.0782 20.7775 34.1532 21.4015C34.3047 22.6621 34.4602 23.9599 33.8583 25.2405C33.7648 25.0744 33.6745 24.8932 33.5918 24.6925C33.517 24.5111 33.3546 24.2199 33.1298 23.8168C32.2548 22.2477 30.2059 18.5734 31.2548 17.0741C31.5671 16.6277 32.36 16.1689 34.3502 16.4159ZM31.9378 7.96801C34.8547 8.03243 37.162 9.12364 38.7957 11.2112C40.0487 12.8124 38.669 20.0981 34.6748 26.3836C34.6353 26.3334 34.5952 26.2828 34.5536 26.2309C34.5371 26.2102 34.5202 26.1891 34.5031 26.1677C35.5352 24.4631 35.3334 22.7766 35.1538 21.2813C35.0799 20.6677 35.0103 20.0881 35.028 19.5438C35.0463 18.9666 35.1226 18.4718 35.1964 17.9932C35.2871 17.4035 35.3794 16.7933 35.3539 16.0739C35.3729 15.9985 35.3806 15.9094 35.3706 15.8035C35.3056 15.1137 34.5181 13.0494 32.9129 11.1807C32.0349 10.1587 30.7544 9.015 29.0061 8.24358C29.7581 8.08773 30.7865 7.94238 31.9378 7.96801ZM15.6156 29.9838C14.809 30.9536 14.2518 30.7678 14.0687 30.7068C12.875 30.3086 11.49 27.7857 10.2689 23.7851C9.21226 20.3234 8.59475 16.8425 8.54593 15.8664C8.39161 12.7795 9.13991 10.628 10.7701 9.47188C13.4232 7.59042 17.7851 8.71655 19.5378 9.28774C19.5126 9.31256 19.4864 9.33584 19.4614 9.36106C16.5853 12.2657 16.6536 17.2284 16.6606 17.5317C16.6604 17.6488 16.6701 17.8145 16.6836 18.0425C16.7331 18.8771 16.8252 20.4306 16.5792 22.1899C16.3505 23.8248 16.8544 25.4249 17.9616 26.5801C18.0762 26.6996 18.1958 26.8119 18.3194 26.9176C17.8266 27.4453 16.7556 28.6124 15.6156 29.9838ZM18.6891 25.8829C17.7968 24.9519 17.3915 23.6568 17.5771 22.3295C17.8369 20.471 17.741 18.8524 17.6895 17.9828C17.6823 17.8612 17.6759 17.7545 17.6721 17.6704C18.0923 17.2979 20.0394 16.2545 21.4279 16.5727C22.0617 16.7179 22.4477 17.1493 22.6082 17.8915C23.439 21.7339 22.7182 23.3355 22.139 24.6224C22.0196 24.8875 21.9069 25.1381 21.8105 25.3974L21.7359 25.5978C21.5469 26.1046 21.3711 26.5757 21.2621 27.0231C20.3136 27.0202 19.3908 26.6151 18.6891 25.8829ZM18.8347 31.0649C18.5577 30.9957 18.3086 30.8755 18.1625 30.7758C18.2845 30.7183 18.5018 30.6402 18.8786 30.5626C20.7022 30.1871 20.9837 29.9222 21.5987 29.1414C21.7398 28.9624 21.8996 28.7594 22.1209 28.5122C22.121 28.5121 22.1211 28.512 22.1212 28.5119C22.4509 28.1428 22.6017 28.2054 22.8751 28.3188C23.0968 28.4105 23.3126 28.6883 23.4002 28.994C23.4415 29.1384 23.4881 29.4125 23.3359 29.6257C22.0512 31.4244 20.1792 31.4013 18.8347 31.0649ZM28.3781 39.9456C26.1472 40.4236 25.3574 39.2853 24.8369 37.9841C24.5009 37.144 24.3358 33.3558 24.453 29.1724C24.4545 29.1167 24.4466 29.063 24.4312 29.0124C24.4179 28.9149 24.3974 28.8162 24.3689 28.7168C24.1946 28.1081 23.7701 27.5989 23.2609 27.3879C23.0585 27.304 22.6871 27.1502 22.2408 27.2643C22.336 26.8722 22.5011 26.4295 22.68 25.95L22.7551 25.7482C22.8396 25.5208 22.9456 25.2852 23.0578 25.0359C23.6639 23.6894 24.494 21.8451 23.5931 17.6785C23.2556 16.118 22.1288 15.356 20.4205 15.5329C19.3963 15.6389 18.4594 16.0521 17.9921 16.289C17.8916 16.34 17.7997 16.3891 17.7138 16.4371C17.8442 14.8646 18.3371 11.9262 20.1804 10.067C21.341 8.89649 22.8868 8.31843 24.7701 8.34955C28.4809 8.41034 30.8605 10.3147 32.2034 11.9016C33.3606 13.2691 33.9872 14.6465 34.2373 15.3894C32.3567 15.1982 31.0776 15.5695 30.4291 16.4965C29.0185 18.5129 31.2009 22.4266 32.2497 24.3075C32.442 24.6523 32.6081 24.9502 32.6603 25.0768C33.0018 25.9045 33.444 26.4571 33.7668 26.8606C33.8658 26.9842 33.9618 27.1041 34.0348 27.2087C33.4652 27.373 32.4421 27.7524 32.5353 29.6489C32.4601 30.6005 31.9253 35.0559 31.6537 36.63C31.2951 38.7096 30.5298 39.4843 28.3781 39.9456ZM37.6897 29.2895C37.1073 29.5599 36.1326 29.7628 35.2066 29.8062C34.1839 29.8542 33.6633 29.6917 33.5408 29.5918C33.4833 28.41 33.9233 28.2864 34.3888 28.1557C34.462 28.1351 34.5333 28.1152 34.6022 28.0911C34.645 28.1259 34.6919 28.1605 34.7433 28.1944C35.5653 28.7369 37.0315 28.7955 39.1013 28.3682C39.1089 28.3666 39.1165 28.3652 39.124 28.3636C38.8449 28.6247 38.3672 28.975 37.6897 29.2895Z"/></g></g></svg>

<svg xmlns="http://www.w3.org/2000/svg" fill="none" aria-hidden="true" viewBox="0 0 48 48"><path fill="#000" d="M41.366 27.565c-.21-.636-.76-1.079-1.47-1.185-.336-.05-.72-.028-1.174.065-.792.163-1.38.226-1.809.238 1.619-2.733 2.935-5.849 3.693-8.782 1.224-4.743.57-6.903-.195-7.88-2.025-2.588-4.978-3.977-8.542-4.02-1.9-.023-3.57.352-4.44.622a16.55 16.55 0 0 0-2.596-.238c-1.714-.027-3.229.347-4.523 1.115a20.644 20.644 0 0 0-3.194-.802c-3.123-.513-5.64-.113-7.482 1.187-2.23 1.575-3.263 4.311-3.072 8.133.061 1.213.74 4.905 1.808 8.406.615 2.012 1.27 3.683 1.947 4.967.96 1.82 1.989 2.893 3.143 3.278.647.215 1.822.366 3.058-.663.157.19.366.378.643.553.353.222.784.404 1.214.512 1.55.387 3.003.29 4.242-.253.008.22.014.43.019.613.008.295.016.584.027.854.073 1.829.198 3.25.566 4.245.02.055.048.139.076.227.184.563.492 1.506 1.274 2.244.81.765 1.79 1 2.688.999.45 0 .88-.059 1.256-.14 1.343-.288 2.868-.726 3.97-2.297 1.043-1.484 1.55-3.72 1.642-7.245l.034-.285.022-.186.245.021.063.004c1.368.063 3.04-.227 4.067-.704.812-.377 3.412-1.75 2.8-3.603Z"/><path fill="#336791" d="M39.027 27.925c-4.066.84-4.346-.538-4.346-.538 4.294-6.37 6.089-14.457 4.54-16.436-4.226-5.398-11.54-2.845-11.662-2.779l-.04.007a14.5 14.5 0 0 0-2.712-.282c-1.84-.03-3.236.482-4.295 1.285 0 0-13.048-5.375-12.44 6.76.128 2.582 3.7 19.535 7.96 14.414 1.556-1.872 3.06-3.455 3.06-3.455a3.95 3.95 0 0 0 2.58.658l.073-.062a2.81 2.81 0 0 0 .029.73c-1.098 1.226-.775 1.44-2.969 1.892-2.22.458-.915 1.272-.064 1.485 1.032.258 3.42.624 5.033-1.635l-.064.258c.43.344.732 2.24.681 3.958-.05 1.719-.084 2.899.255 3.82.338.922.676 2.995 3.56 2.377 2.41-.516 3.658-1.854 3.832-4.086.123-1.587.402-1.353.42-2.771l.224-.672c.258-2.151.04-2.845 1.525-2.522l.36.031c1.093.05 2.524-.175 3.363-.565 1.807-.84 2.88-2.24 1.097-1.872Z"/><path fill="#fff" d="M21.277 17.097c-.367-.051-.699-.004-.866.123a.317.317 0 0 0-.132.212c-.021.15.085.318.15.404.184.244.453.411.719.448a.829.829 0 0 0 .115.008c.444 0 .847-.345.883-.6.044-.32-.42-.533-.87-.595Zm12.139.01c-.035-.25-.481-.322-.904-.263-.422.059-.831.25-.797.5.027.195.38.529.797.528.035 0 .07-.002.106-.007.279-.038.483-.215.58-.317.148-.155.233-.328.218-.441Z"/><path fill="#fff" d="M40.38 27.83c-.154-.469-.653-.62-1.483-.448-2.461.508-3.343.156-3.632-.058 1.913-2.915 3.487-6.438 4.336-9.726.403-1.557.625-3.003.643-4.182.02-1.294-.2-2.245-.655-2.826-1.832-2.341-4.521-3.597-7.777-3.632-2.238-.025-4.129.548-4.496.709a11.207 11.207 0 0 0-2.53-.325c-1.68-.027-3.132.375-4.334 1.195a19.36 19.36 0 0 0-3.523-.924c-2.854-.46-5.121-.111-6.74 1.035-1.93 1.369-2.822 3.814-2.65 7.269.059 1.162.72 4.738 1.766 8.162 1.376 4.507 2.871 7.059 4.445 7.584.184.061.396.104.63.104.574 0 1.278-.259 2.01-1.139a72.378 72.378 0 0 1 2.77-3.135 4.463 4.463 0 0 0 1.994.536l.005.055c-.14.165-.254.31-.352.434-.481.611-.582.738-2.132 1.058-.44.09-1.612.332-1.629 1.153-.019.897 1.384 1.273 1.544 1.313.557.14 1.094.209 1.606.209 1.244 0 2.34-.41 3.215-1.2-.027 3.197.106 6.347.49 7.307.315.786 1.083 2.707 3.51 2.707.355 0 .747-.042 1.178-.134 2.533-.543 3.632-1.662 4.058-4.13.227-1.318.618-4.468.802-6.157.387.121.887.177 1.426.177 1.126 0 2.425-.24 3.24-.618.914-.424 2.565-1.467 2.266-2.373Zm-6.03-11.414c-.008.499-.077.951-.15 1.424-.078.508-.159 1.034-.18 1.671-.02.621.058 1.267.133 1.89.152 1.261.307 2.559-.295 3.84a4.981 4.981 0 0 1-.266-.549c-.075-.18-.237-.472-.462-.875-.875-1.57-2.924-5.244-1.875-6.743.312-.446 1.105-.905 3.095-.658Zm-2.412-8.448c2.917.064 5.224 1.156 6.858 3.243 1.253 1.601-.127 8.887-4.121 15.173l-.121-.153-.05-.063c1.031-1.705.83-3.391.65-4.887-.074-.613-.144-1.193-.126-1.737.018-.577.095-1.072.168-1.55.091-.59.183-1.2.158-1.92a.795.795 0 0 0 .017-.27c-.065-.69-.853-2.755-2.458-4.623-.878-1.022-2.159-2.166-3.907-2.937.752-.156 1.78-.302 2.932-.276ZM15.616 29.984c-.807.97-1.364.784-1.547.723-1.194-.398-2.579-2.921-3.8-6.922-1.057-3.462-1.674-6.942-1.723-7.919-.154-3.086.594-5.238 2.224-6.394 2.653-1.882 7.015-.755 8.768-.184l-.077.073c-2.876 2.905-2.807 7.867-2.8 8.17 0 .118.01.284.023.512.05.834.141 2.388-.105 4.147-.229 1.635.275 3.235 1.383 4.39.114.12.234.232.357.338a73.85 73.85 0 0 0-2.703 3.066Zm3.073-4.101c-.892-.931-1.297-2.226-1.112-3.553.26-1.859.164-3.478.112-4.347l-.017-.313c.42-.372 2.367-1.416 3.756-1.097.634.145 1.02.576 1.18 1.319.831 3.842.11 5.444-.469 6.73-.12.265-.232.516-.328.775l-.075.2c-.19.508-.365.979-.474 1.426-.948-.003-1.871-.408-2.573-1.14Zm.146 5.182a2.226 2.226 0 0 1-.672-.29c.122-.057.339-.135.716-.212 1.823-.376 2.105-.64 2.72-1.422.14-.179.3-.382.522-.629.33-.37.48-.307.754-.193.222.091.438.37.525.675.042.144.088.419-.064.632-1.285 1.798-3.157 1.775-4.501 1.439Zm9.543 8.88c-2.23.479-3.02-.66-3.541-1.96-.336-.841-.501-4.63-.384-8.813a.502.502 0 0 0-.022-.16 2.103 2.103 0 0 0-.062-.295c-.174-.609-.599-1.118-1.108-1.33-.203-.083-.574-.237-1.02-.123.095-.392.26-.834.439-1.314l.075-.202c.085-.227.19-.463.303-.712.606-1.347 1.436-3.19.535-7.358-.337-1.56-1.464-2.322-3.172-2.145-1.025.106-1.962.52-2.429.756-.1.051-.192.1-.278.148.13-1.572.623-4.51 2.466-6.37 1.161-1.17 2.707-1.749 4.59-1.717 3.71.06 6.09 1.965 7.433 3.552 1.158 1.367 1.784 2.745 2.034 3.487-1.88-.19-3.16.18-3.808 1.108-1.41 2.016.772 5.93 1.82 7.81.193.345.36.643.411.77.342.827.784 1.38 1.107 1.784.099.123.195.243.268.348-.57.164-1.593.543-1.5 2.44-.075.951-.61 5.407-.881 6.981-.359 2.08-1.124 2.854-3.276 3.316ZM37.69 29.29c-.583.27-1.557.473-2.483.516-1.023.048-1.544-.114-1.666-.214-.058-1.182.382-1.306.848-1.436.073-.02.144-.04.213-.065.043.035.09.07.141.103.822.543 2.288.602 4.358.174l.023-.004c-.28.26-.757.611-1.434.925Z"/></svg>
